X:2
T: Easy Club       (r-98)
C: Jim Sutherland
M: C|
Z: Transcribed to abc by Mary Lou Knack
R: reel
K: A
E2| "A"A2cA "E"BcdB| "A"cdec "D"defg| "A"agae faec| "E"dccB- BdcB|
    "A"A2cA "E"BcdB| "A"cdec "D"defg| "A"agae faec| "G"dB=GB "A"A2 :|
|:ce| "D"faad- daga| "A"eaac- caga| "D"faad- daga| "A"ceeB- "E"BdcB|
    "A"A2cA "E"BcdB| "A"cdec "D"defg| "A"agae faec| "G"dB=GB "A"A2 :|
